src/assets/media/icon_invalid_red_circle.svg

<svg width="12" height="12" fill="none" xmlns="http://www.w3.org/2000/svg">
    <path d="M6 0C2.688 0 0 2.688 0 6s2.688 6 6 6 6-2.688 6-6-2.688-6-6-6zm.6 9H5.4V7.8h1.2V9zm0-2.4H5.4V3h1.2v3.6z"
          fill="#E22626"/>
</svg>

<svg width="12" height="12" viewBox="0 0 12 12" fill="none" xmlns="http://www.w3.org/2000/svg">
    <path d="M6 0C2.688 0 0 2.688 0 6C0 9.312 2.688 12 6 12C9.312 12 12 9.312 12 6C12 2.688 9.312 0 6 0ZM6.6 9H5.4V7.8H6.6V9ZM6.6 6.6H5.4V3H6.6V6.6Z"
          fill="#E22626"/>
</svg>
